(Exported by FreeCAD)
(Post Processor: grbl_post)
(Output Time:2021-01-02 10:57:10.186082)
(Begin preamble)
G17 G90
G21
(Begin operation: Fixture)
(Path: Fixture)
G54
(Finish operation: Fixture)
(Begin operation: TC: Default Tool)
(Path: TC: Default Tool)
(TC: Default Tool)
(Begin toolchange)
( M6 T1.0 )
M3 S12000.0
(Finish operation: TC: Default Tool)
(Begin operation: Profile)
(Path: Profile)
(Profile)
(Compensated Tool Path. Diameter: 1.0)
G0 Z2.000
G0 X-2.576 Y-2.558
G1 X-2.576 Y-2.558 Z-0.500 F120.000
G3 X-20.500 Y-10.004 Z-0.500 I-7.424 J-7.424 K0.000 F120.000
G3 X-10.500 Y-20.460 Z-0.500 I10.483 J0.015 K0.000 F120.000
G1 X-10.500 Y-29.982 Z-0.500 F120.000
G3 X-10.000 Y-30.482 Z-0.500 I0.500 J-0.000 K0.000 F120.000
G1 X-0.000 Y-30.482 Z-0.500 F120.000
G3 X0.500 Y-29.982 Z-0.500 I0.000 J0.500 K0.000 F120.000
G1 X0.500 Y-9.960 Z-0.500 F120.000
G3 X-2.576 Y-2.558 Z-0.500 I-10.500 J-0.022 K0.000 F120.000
G1 X-2.576 Y-2.558 Z-1.000 F120.000
G3 X-20.500 Y-10.004 Z-1.000 I-7.424 J-7.424 K0.000 F120.000
G3 X-10.500 Y-20.460 Z-1.000 I10.483 J0.015 K0.000 F120.000
G1 X-10.500 Y-29.982 Z-1.000 F120.000
G3 X-10.000 Y-30.482 Z-1.000 I0.500 J-0.000 K0.000 F120.000
G1 X-0.000 Y-30.482 Z-1.000 F120.000
G3 X0.500 Y-29.982 Z-1.000 I0.000 J0.500 K0.000 F120.000
G1 X0.500 Y-9.960 Z-1.000 F120.000
G3 X-2.576 Y-2.558 Z-1.000 I-10.500 J-0.022 K0.000 F120.000
G1 X-2.576 Y-2.558 Z-1.500 F120.000
G3 X-20.500 Y-10.004 Z-1.500 I-7.424 J-7.424 K0.000 F120.000
G3 X-10.500 Y-20.460 Z-1.500 I10.483 J0.015 K0.000 F120.000
G1 X-10.500 Y-29.982 Z-1.500 F120.000
G3 X-10.000 Y-30.482 Z-1.500 I0.500 J-0.000 K0.000 F120.000
G1 X-0.000 Y-30.482 Z-1.500 F120.000
G3 X0.500 Y-29.982 Z-1.500 I0.000 J0.500 K0.000 F120.000
G1 X0.500 Y-9.960 Z-1.500 F120.000
G3 X-2.576 Y-2.558 Z-1.500 I-10.500 J-0.022 K0.000 F120.000
G1 X-2.576 Y-2.558 Z-2.000 F120.000
G3 X-20.500 Y-10.004 Z-2.000 I-7.424 J-7.424 K0.000 F120.000
G3 X-10.500 Y-20.460 Z-2.000 I10.483 J0.015 K0.000 F120.000
G1 X-10.500 Y-29.982 Z-2.000 F120.000
G3 X-10.000 Y-30.482 Z-2.000 I0.500 J-0.000 K0.000 F120.000
G1 X-0.000 Y-30.482 Z-2.000 F120.000
G3 X0.500 Y-29.982 Z-2.000 I0.000 J0.500 K0.000 F120.000
G1 X0.500 Y-9.960 Z-2.000 F120.000
G3 X-2.576 Y-2.558 Z-2.000 I-10.500 J-0.022 K0.000 F120.000
G0 Z2.000
(Finish operation: Profile)
(Begin operation: Custom)
(Path: Custom)
(Custom)
(Begin Custom)
G0 Z2.000
G0 X0.000 Y0.000
(End Custom)
(Finish operation: Custom)
(Begin postamble)
M5
G17 G90
M2
